symbols/web/badge/materialsymbolsoutlined/badge_wght500_48px.svg

<svg xmlns="http://www.w3.org/2000/svg" height="48" width="48"><path d="M7.1 44.3q-1.35 0-2.375-1.025T3.7 40.9V17.1q0-1.4 1.025-2.4t2.375-1h11.45V7q0-1.3 1-2.3 1-1 2.3-1h4.35q1.3 0 2.3 1 1 1 1 2.3v6.7h11.4q1.4 0 2.4 1t1 2.4v23.8q0 1.35-1 2.375T40.9 44.3Zm0-3.4h33.8V17.1H29.5q0 1.4-.975 2.2-.975.8-2.375.8h-4.3q-1.35 0-2.325-.8-.975-.8-.975-2.2H7.1v23.8Zm4.5-5.15h11.95v-.7q0-.9-.45-1.6-.45-.7-1.15-.95-1.6-.55-2.5-.725-.9-.175-1.75-.175-.95 0-2.025.225t-2.425.675q-.75.25-1.2.95-.45.7-.45 1.6Zm16.8-3.35h8.5v-2.5h-8.5Zm-10.7-2.5q1.15 0 1.925-.775.775-.775.775-1.925 0-1.1-.775-1.9-.775-.8-1.925-.8-1.1 0-1.9.8-.8.8-.8 1.9 0 1.15.8 1.925.8.775 1.9.775Zm10.7-3.15h8.5v-2.5h-8.5ZM21.95 16.7h4.15V7.1h-4.15ZM24 29Z"/></svg>

<svg xmlns="http://www.w3.org/2000/svg" height="48" width="48"><path d="M28.4 26.75H36.9V24.25H28.4ZM28.4 32.4H36.9V29.9H28.4ZM29.5 13.7H40.9Q42.3 13.7 43.3 14.7Q44.3 15.7 44.3 17.1V40.9Q44.3 42.25 43.3 43.275Q42.3 44.3 40.9 44.3H7.1Q5.75 44.3 4.725 43.275Q3.7 42.25 3.7 40.9V17.1Q3.7 15.7 4.725 14.7Q5.75 13.7 7.1 13.7H18.55V7Q18.55 5.7 19.55 4.7Q20.55 3.7 21.85 3.7H26.2Q27.5 3.7 28.5 4.7Q29.5 5.7 29.5 7ZM21.95 16.7H26.1V7.1H21.95ZM24 29.35Q24 29.35 24 29.35Q24 29.35 24 29.35Q24 29.35 24 29.35Q24 29.35 24 29.35Q24 29.35 24 29.35Q24 29.35 24 29.35Q24 29.35 24 29.35Q24 29.35 24 29.35Q24 29.35 24 29.35Q24 29.35 24 29.35Q24 29.35 24 29.35Q24 29.35 24 29.35ZM17.7 29.9Q18.85 29.9 19.625 29.125Q20.4 28.35 20.4 27.2Q20.4 26.1 19.625 25.3Q18.85 24.5 17.7 24.5Q16.6 24.5 15.8 25.3Q15 26.1 15 27.2Q15 28.35 15.8 29.125Q16.6 29.9 17.7 29.9ZM11.6 35.75H23.55V35.05Q23.55 34.15 23.1 33.45Q22.65 32.75 21.95 32.5Q20.35 31.95 19.45 31.775Q18.55 31.6 17.7 31.6Q16.75 31.6 15.675 31.825Q14.6 32.05 13.25 32.5Q12.5 32.75 12.05 33.45Q11.6 34.15 11.6 35.05ZM18.55 17.1H7.1Q7.1 17.1 7.1 17.1Q7.1 17.1 7.1 17.1V40.9Q7.1 40.9 7.1 40.9Q7.1 40.9 7.1 40.9H40.9Q40.9 40.9 40.9 40.9Q40.9 40.9 40.9 40.9V17.1Q40.9 17.1 40.9 17.1Q40.9 17.1 40.9 17.1H29.5Q29.5 18.5 28.525 19.3Q27.55 20.1 26.15 20.1H21.85Q20.5 20.1 19.525 19.3Q18.55 18.5 18.55 17.1Z"/></svg>
